X: 0
O: USA
Q: 1/4=121
T: Limbo Rock
M: 4/4
L: 1/8
R: Moderate Latin Rock
K: Emin
z G G2 B2 | "G" d2 d(d d)B (d2 | d2) z G G2 B2 | "D7" A2 A(d d)d "G" (B2 |
 B2) z G G2 B2 |  d2 d(d d)B (d2 | d2) z G G2 B2 | "D7" A2 A(d d)d "G"(B2 |
 B2) z e e2 c2 | "C" e2 e(e e)c (e2 | e2) z d d2 d2 | "G" g2 g(d d)B "D7" (A2
| A2) z G G2 B2 | A2 A(d d)d (D2 | D2) z B B2 A2 | "G" G2 G("C"E E)E "G" G2 |